public/assets/tracks/gen-ai.svg

<svg fill="none" height="130" viewBox="0 0 131 130" width="131" xmlns="http://www.w3.org/2000/svg"><g fill="#fff"><path d="m122.375 65v-8.125h-8.125v-16.25c-.005-4.3081-1.719-8.4382-4.765-11.4845-3.047-3.0464-7.177-4.7601-11.485-4.7655h-8.125v-16.25h-8.125v16.25h-32.5v-16.25h-8.125v16.25h-8.125c-4.3081.0054-8.4382 1.7191-11.4845 4.7655-3.0464 3.0463-4.7601 7.1764-4.7655 11.4845v16.25h-8.125v8.125h8.125v20.3125h-8.125v8.125h8.125v12.1875c.0054 4.308 1.7191 8.438 4.7655 11.485 3.0463 3.046 7.1764 4.76 11.4845 4.765h65c4.308-.005 8.438-1.719 11.485-4.765 3.046-3.047 4.76-7.177 4.765-11.485v-12.1875h8.125v-8.125h-8.125v-20.3125zm-16.25 40.625c-.002 2.154-.859 4.22-2.382 5.743s-3.589 2.38-5.743 2.382h-65c-2.1542-.002-4.2196-.859-5.7429-2.382-1.5232-1.523-2.3799-3.589-2.3821-5.743v-65c.0022-2.1542.8589-4.2196 2.3821-5.7429 1.5233-1.5232 3.5887-2.3799 5.7429-2.3821h65c2.154.0022 4.22.8589 5.743 2.3821 1.523 1.5233 2.38 3.5887 2.382 5.7429z"/><circle cx="82.5" cy="59" r="9"/><circle cx="49.5" cy="59" r="9"/></g><path d="m48.5 89c0 2.8161 7.4757 10.2083 18.3495 10.2083s16.6505-7.3922 16.6505-10.2083" stroke="#fff" stroke-linecap="round" stroke-width="6.563"/></svg>

<svg xmlns="http://www.w3.org/2000/svg" width="131" height="130" fill="none" viewBox="0 0 131 130"><path fill="#fff" d="M122.375 65V56.875H114.25V40.625C114.245 36.3169 112.531 32.1868 109.485 29.1405C106.438 26.0941 102.308 24.3804 98 24.375H89.875V8.125H81.75V24.375H49.25V8.125H41.125V24.375H33C28.6919 24.3804 24.5618 26.0941 21.5155 29.1405C18.4691 32.1868 16.7554 36.3169 16.75 40.625V56.875H8.625V65H16.75V85.3125H8.625V93.4375H16.75V105.625C16.7554 109.933 18.4691 114.063 21.5155 117.11C24.5618 120.156 28.6919 121.87 33 121.875H98C102.308 121.87 106.438 120.156 109.485 117.11C112.531 114.063 114.245 109.933 114.25 105.625V93.4375H122.375V85.3125H114.25V65H122.375ZM106.125 105.625C106.123 107.779 105.266 109.845 103.743 111.368C102.22 112.891 100.154 113.748 98 113.75H33C30.8458 113.748 28.7804 112.891 27.2571 111.368C25.7339 109.845 24.8772 107.779 24.875 105.625V40.625C24.8772 38.4708 25.7339 36.4054 27.2571 34.8821C28.7804 33.3589 30.8458 32.5022 33 32.5H98C100.154 32.5022 102.22 33.3589 103.743 34.8821C105.266 36.4054 106.123 38.4708 106.125 40.625V105.625Z"/><circle cx="82.5" cy="59" r="9" fill="#fff"/><circle cx="49.5" cy="59" r="9" fill="#fff"/><path stroke="#fff" stroke-linecap="round" stroke-width="6.563" d="M48.5 89C48.5 91.8161 55.9757 99.2083 66.8495 99.2083C77.7233 99.2083 83.5 91.8161 83.5 89"/></svg>
